X: 12169
T: Exile Of Erin, The
R: reel
M: 4/4
K: Dmixolydian
|:(3EFGAG FD~D2|FGAG FD~D2|de=fe dcAG|FGAB c2AG|
FGAG FD~D2|[A3D3] G FD~D2|[D3A,3] D CA,~A,2|FAGE D4:|
|:dfed cAGB|(3ABA GA FAEA|dfed ^cdef|geag fddA|
dfed cAGB|(3ABA GA FAEA|[D3A3] B cAdB|cAGE D4:|

